!!!COM: Béla Bartók
!!!OTL: [R350_Bar-w30p4m22-30]
!!!OMV:
!!!example:
!!!work:
**kern	**kern	**dynam
*part1	*part1	*part1
*staff2	*staff1	*
*I"Piano	*	*
*I'Pno.	*	*
*clefF4	*clefG2	*
*k[]	*k[]	*
*C:	*C:	*
*M2/4	*M2/4	*
=1	=1	=1
*^	*^	*
!	!	!LO:TX:t=[quarter]=123	!	!
!	!	!LO:TX:b:t=[f]	!	!
8DL	8GG#X 8C#X	4G [4g	8ryy	.
8D	8r	.	8B 8c#X	.
8D	8EE#X 8AA#X	16gLL]	8r	.
.	.	(16a	.	.
8DJ	8r	16g	8B 8c#	.
.	.	16f#XJJ	.	.
=2	=2	=2	=2	=2
8DL	8GG#X 8C#X	16gLL	8r	.
.	.	16f#XJJ)	.	.
8D	8r	16r	8B 8c#X	.
.	.	(16aLL	.	.
8D	8EE#X 8AA#X	16g	8r	.
.	.	16f#J	.	.
8DJ	8r	16gL	8B 8c#	.
.	.	16f#JJ)	.	.
=3	=3	=3	=3	=3
8DL	8GG#X 8C#X	16r	8r	.
.	.	(16gLL	.	.
8D	8r	16f#XJJ)	8B 8c#X	.
.	.	16r	.	.
8D	8EE#X 8AA#X	(16gLL	8r	.
.	.	16f#JJ)	.	.
8DJ	8r	16r	8B 8c#	.
.	.	(16gKL	.	.
=4	=4	=4	=4	=4
8DL	8GG#X 8C#X	16f#XJk)	8r	.
.	.	16r	.	.
8D	8r	(16gLL	8B 8c#X	.
.	.	16f#JJ)	.	.
*	*	*v	*v	*
8D	8EE#X 8AA#X	16r	.
.	.	(16f#LL	<
8DJ	8r	16g	.
.	.	16aJJ	.
=5	=5	=5	=5
*	*	*^	*
8F#XL 8Gn	8C#X	16BLL 16b	8r	[
.	.	16cJJ 16cc)	.	.
8F# 8G	8r	8r	8e 8f#X	.
8r	8AAA#X 8FF#X 8GG	8r	8r	sf
8F#J 8G	8r	(16bLL 16bb	8ee 8ff#X	.
.	.	16ccJJ 16ccc)	.	.
=6	=6	=6	=6	=6
8F#XL 8G	8C#X	4r	8r	.
8F# 8G	8r	.	8e 8f#X	.
8F# 8G	8AA#X	(16BLL 16b	8r	.
.	.	16cJJ 16cc)	.	.
8F#J 8G	8r	8r	8e 8f#	.
=7	=7	=7	=7	=7
8F#XL 8G	8C#X	8r	8ryy	.
8F# 8G	8r	(16bLL 16bb	8ee 8ff#X	.
.	.	16ccJJ 16ccc)	.	.
8r	8AAA#X 8FF#X 8GG	16r	8ryy	sf
.	.	(16BLL 16b	.	.
8F#J 8G	8r	16cJJ 16cc)	8e 8f#X	.
.	.	16r	.	.
*	*	*v	*v	*
=8	=8	=8	=8
8F#XL 8G	8C#X	8r	.
8F# 8G	8r	(16BLL 16b	.
.	.	16cJ 16cc	.
8F# 8G	8AA#X	16dL 16dd	.
.	.	16c 16cc	.
8F#J 8G	8r	16d 16dd	.
.	.	16e-XJ 16ee-X	.
=9	=9	=9	=9
8F#XL 8G	8C#X	16dL 16dd	.
.	.	16cJJ 16cc)	.
8F#J 8G	8r	8r	.
*	*	*clefF4	*
4r	8AAA#X 8FF#X 8GG	8r	.
.	8r	8GG 8F#X 8G	.
*v	*v	*	*
*	*clefG2	*
=	=	=
*-	*-	*-
!!!system-decoration: [({(s1,s2)})]
!!!CDT:
!!!CBL:
!!!CDL:
!!!CNT:
!!!AGN:
!!!MCN:
!!!MDT:
!!!MGN:
!!!MLC:
!!!MPD:
!!!MPN:
!!!ODT:
!!!PDT:
!!!excerpt-start-measure:
!!!excerpt-end-measure:
!!!excerpt-start-time:
!!!excerpt-end-time:
!!!EEV: 2020/07/28
!!!ONB: Converted from MusicXML on 2020/07/28
